X:269
T:Portobellow Hornpipe
R:hp 32
C:Trad. ed. Barry Callaghan
S:'Hard Core English' page 22C
O:England
B:Hard Core English ISBN 978 085418 201 5
N:In Irwin and Joseph Barnes.
Z:PJHeadford 2008
M:4/4
L:1/8
Q:1/4=140
K:G
|:DE/F/|G2GA G2B,E|DCB,A, G,A,B,G,|A,2AB A2GA|BABG EFGE|
G2GA G2B,E|DCB,A, G,2Bc|dBGB cAFA|G2GA G2:|
|:Bc|d2de d2ef|gfed e2ef|edcB cBAG|FGAF D2CB,|
C2EC B,2DB,|A,2CA, G,2Bc|dBGB cAFA|G2GA G2:|]
W:This from Irwin, also in Joseph Barnes.

